X:2443
T:Callipyge - Valse/Walzer/Waltz
T:("Café Waltz")
C:Eric Elsener
Z:abc transcription Simon Wascher
N:please mail errors to simon.wascher@chello.at
M:3/4
L:1/4
K:G
B2G|EFG|AGF|DEF|
GFG|A^GA|BBB|A2G|
B2G|EFG|AGF|DEF|
GFG|A^GA|BBA|G3:|
|:D2F|EcB|Adc|B2G|
D2F|EcB|AGF|1G3:|2G2A||
|:B/G/E/G/E/G/|B/G/E/G/E/G/|c/A/F/D/F/A/|c/A/F/D/F/A/|
B/G/E/G/E/G/|B/G/E/G/E/G/|c/A/F/D/F/A/|G3:|


